content/pages/careers/perky-food.svg

<svg height="119" viewBox="0 0 104 119" width="104" xmlns="http://www.w3.org/2000/svg"><g fill="none" fill-rule="evenodd" transform="translate(-1 2)"><path d="m24.2357556 21.2795865c10.127-22.35113262 39.169 5.3689594 51.1853333-14.29262988.8305555-1.35996276-1.3014445-2.60273724-2.1291111-1.24711479-7.6338889 12.48995587-23.7481111 3.07872421-34.9367778 3.48960657-7.3912222.27199255-13.1921111 4.0581867-16.2485556 10.8030233-.6514444 1.4366415 1.4733334 2.6938837 2.1291112 1.2471148" fill="#11100d"/><path d="m44.2371222 28.093868c-.7106666 0-1.2884444-.5772608-1.2884444-1.2905178 0-.5454319-.442-.9881432-.9865556-.9881432-.5445555 0-.9865555.4427113-.9865555.9881432 0 .713257-.5763334 1.2905178-1.2884445 1.2905178-.7106666 0-1.287-.5772608-1.287-1.2905178 0-1.966159 1.5975556-3.5677321 3.562-3.5677321 1.9644445 0 3.5634445 1.6015731 3.5634445 3.5677321 0 .713257-.5777778 1.2905178-1.2884445 1.2905178" fill="#11100d"/><path d="m62.1241111 28.093868c-.7106667 0-1.2884444-.5772608-1.2884444-1.2905178 0-.5454319-.442-.9881432-.9865556-.9881432-.5431111 0-.9865555.4427113-.9865555.9881432 0 .713257-.5763334 1.2905178-1.2884445 1.2905178-.7106667 0-1.287-.5772608-1.287-1.2905178 0-1.966159 1.5975556-3.5677321 3.562-3.5677321 1.9644445 0 3.5634445 1.6015731 3.5634445 3.5677321 0 .713257-.5777778 1.2905178-1.2884445 1.2905178" fill="#11100d"/><path d="m72.6973 35.5466086c-7.5284444-36.34138783-34.2968889-35.30839484-34.2968889-35.30839484s-30.45755554-1.17477635-35.53333332 43.08622444c0 0-3.90577778 42.3020757 35.53333332 42.3020757 24.037 0 31.9727778-15.7162505 34.5048889-27.9891911" stroke="#11100d" stroke-linecap="round" stroke-linejoin="round" stroke-width="2.638126"/><path d="m25.8607556 83.9222201.8998888 29.9857319 6.8625556 1.707187" stroke="#11100d" stroke-linecap="round" stroke-linejoin="round" stroke-width="2.638126"/><path d="m51.4683 83.9222201.8984444 29.9857319 6.864 1.707187" stroke="#11100d" stroke-linecap="round" stroke-linejoin="round" stroke-width="2.638126"/><path d="m57.8003111 30.6730229c-9.529 0-17.2538889 7.7373201-17.2538889 17.2816544v4.2289055c0 6.1198324 4.953 11.080803 11.063 11.080803 5.759 0 10.5545556-4.4242193 11.0268889-10.1707853l1.2956667-15.7524198c.2946666-3.5908803-2.535-6.6681578-6.1316667-6.6681578" fill="#11100d"/><path d="m55.0853333 60.0809155c1.5628889-.6524928 1.9528889-2.6967772.7251111-3.8643197-1.0847777-1.0315462-2.6101111-1.7896531-4.9096666-1.9039479-2.0626667-.1012738-3.6717778 1.1024379-4.7421111 2.2801078-.9692223 1.0677155-.6138889 2.7763495.7034444 3.3608441 1.1772222.5208368 2.6996667 1.0127383 4.2596667 1.0127383 1.4328889 0 2.834-.4137759 3.9635555-.8854226" fill="#fff"/><path d="m68.7662444 52.8012085 1.3592223 4.8351016h31.5972223l1.586-4.8351016z" fill="#f7f7f7"/><g stroke="#11100d" stroke-linecap="round" stroke-linejoin="round"><path d="m68.7662444 52.8012085 1.3592223 4.8351016h31.5972223l1.586-4.8351016z" stroke-width="2.336792"/><path d="m70.4572556 48.7035316h31.2216664" stroke-width="2.336792"/><path d="m67.9234111 44.5087565h35.9276669l-1.383778-2.8486879c-3.0838889-6.3527622-9.5174444-10.3849071-16.5706667-10.3849071-7.0156666 0-13.4217777 3.9901886-16.5258889 10.2923139z" stroke-width="2.336792"/><path d="m13.3393 45.8075276v52.6898764h-8.58" stroke-width="2.638126"/><path d="m6.83684444 93.9706088 6.50288886 4.5269399" stroke-width="2.638126"/><path d="m71.7454111 62.1606458c3.9346667 1.5769781 9.0783333 1.7824193 15.301-4.1420993" stroke-width="2.638126"/></g><path d="m57.1355778 79.2436589c-1.7766667-.7335119-3.0058889-2.6287791-2.9538889-4.5529817.052-1.9242027 1.3823333-3.750025 3.1951111-4.3866033.7438889-.2618652 1.5498889-.3370972 2.2677778-.6611734 1.2248889-.551219 2.028-1.7346759 2.7198889-2.8877507.6904444-1.1516281 1.378-2.3770413 2.4988889-3.1163402 1.1208888-.7392989 2.8325555-.7870423 3.6457777.2835667.2686667.3515648.4116667.7841487.5156667 1.2152858.2368889.970782.3033333 1.9835202.195 2.9774504l-9.3701111 12.4885091" fill="#11100d" opacity=".1"/><path d="m39.4151333 57.5406787c-1.8806666.3978614-3.9635555-.4716467-5.0035555-2.0891343-1.0414445-1.6189344-.9721111-3.8787874.1675555-5.4282769.4665556-.6365783 1.0891111-1.1530748 1.4993334-1.8272691.7005555-1.1472877.6976666-2.5781422.6196666-3.9207437s-.2022222-2.7416271.3076667-3.9858483c.5098889-1.2442213 1.8951111-2.2497256 3.1691111-1.8272691.4203333.1403366.7828889.4166694 1.1122222.713257.7424445.6684073 1.3664445 1.4670237 1.8373334 2.348106l-.702 15.606296" fill="#11100d" opacity=".1"/><path d="m45.1170778 69.4729051c-2.4078889-.7986164-5.2982222.2647587-6.6184445 2.4349121-.2628889.4311371-.4723333.9534207-.3163333 1.4351947.0837778.2589717.2657778.4774338.4766667.6495993.8406666.688662 2.0511111.6814281 3.1142222.4600725 1.0631111-.2199089 2.1074444-.6192171 3.1922222-.5960688.2296667.0043403.4665556.0274886.6861111-.0361692.2296667-.0679982.4232222-.2242492.5792222-.4036486.5503334-.6336847.6731112-1.6044667.299-2.3538929-.3741111-.7508731-.5777777-1.6507634-1.4126666-1.5899991" fill="#11100d" opacity=".1"/></g></svg>

<?xml version="1.0" encoding="UTF-8"?>
<svg width="104px" height="119px" viewBox="0 0 104 119" version="1.1" xmlns="http://www.w3.org/2000/svg" xmlns:xlink="http://www.w3.org/1999/xlink">
    <!-- Generator: Sketch 52.5 (67469) - http://www.bohemiancoding.com/sketch -->
    <title>perky-food</title>
    <desc>Created with Sketch.</desc>
    <defs>
        <polygon id="path-1" points="1.44444444 0.723384447 2.16666667 0.723384447 2.16666667 1.44676889 1.44444444 1.44676889"></polygon>
        <polygon id="path-3" points="1.44444444 0.723384447 2.16666667 0.723384447 2.16666667 1.44676889 1.44444444 1.44676889"></polygon>
        <polygon id="path-5" points="1.44444444 0.723384447 2.16666667 0.723384447 2.16666667 1.44676889 1.44444444 1.44676889"></polygon>
        <polygon id="path-7" points="1.44444444 0.723384447 2.16666667 0.723384447 2.16666667 1.44676889 1.44444444 1.44676889"></polygon>
        <polygon id="path-9" points="1.44444444 0.723384447 2.16666667 0.723384447 2.16666667 1.44676889 1.44444444 1.44676889"></polygon>
        <polygon id="path-11" points="1.44444444 0.723384447 2.16666667 0.723384447 2.16666667 1.44676889 1.44444444 1.44676889"></polygon>
        <polygon id="path-13" points="1.44444444 0.723384447 2.16666667 0.723384447 2.16666667 1.44676889 1.44444444 1.44676889"></polygon>
        <polygon id="path-15" points="1.44444444 0.723384447 2.16666667 0.723384447 2.16666667 1.44676889 1.44444444 1.44676889"></polygon>
    </defs>
    <g id="✔--Careers" stroke="none" stroke-width="1" fill="none" fill-rule="evenodd">
        <g id="Careers__vertical" transform="translate(-1079.000000, -3930.000000)">
            <g id="perks" transform="translate(80.000000, 3930.000000)">
                <g id="allowance" transform="translate(998.000000, 2.000000)">
                    <g id="perky-food">
                        <path d="M24.2357556,21.2795865 C34.3627556,-1.07154612 63.4047556,26.6485459 75.4210889,6.98695662 C76.2516444,5.62699386 74.1196444,4.38421938 73.2919778,5.73984183 C65.6580889,18.2297977 49.5438667,8.81856604 38.3552,9.2294484 C30.9639778,9.50144095 25.1630889,13.2876351 22.1066444,20.0324717 C21.4552,21.4691132 23.5799778,22.7263554 24.2357556,21.2795865" id="Fill-1" fill="#11100D"></path>
                        <path d="M44.2371222,28.093868 C43.5264556,28.093868 42.9486778,27.5166072 42.9486778,26.8033502 C42.9486778,26.2579183 42.5066778,25.815207 41.9621222,25.815207 C41.4175667,25.815207 40.9755667,26.2579183 40.9755667,26.8033502 C40.9755667,27.5166072 40.3992333,28.093868 39.6871222,28.093868 C38.9764556,28.093868 38.4001222,27.5166072 38.4001222,26.8033502 C38.4001222,24.8371912 39.9976778,23.2356181 41.9621222,23.2356181 C43.9265667,23.2356181 45.5255667,24.8371912 45.5255667,26.8033502 C45.5255667,27.5166072 44.9477889,28.093868 44.2371222,28.093868" id="Fill-3" fill="#11100D"></path>
                        <path d="M62.1241111,28.093868 C61.4134444,28.093868 60.8356667,27.5166072 60.8356667,26.8033502 C60.8356667,26.2579183 60.3936667,25.815207 59.8491111,25.815207 C59.306,25.815207 58.8625556,26.2579183 58.8625556,26.8033502 C58.8625556,27.5166072 58.2862222,28.093868 57.5741111,28.093868 C56.8634444,28.093868 56.2871111,27.5166072 56.2871111,26.8033502 C56.2871111,24.8371912 57.8846667,23.2356181 59.8491111,23.2356181 C61.8135556,23.2356181 63.4125556,24.8371912 63.4125556,26.8033502 C63.4125556,27.5166072 62.8347778,28.093868 62.1241111,28.093868" id="Fill-5" fill="#11100D"></path>
                        <path d="M72.6973,35.5466086 C65.1688556,-0.794779233 38.4004111,0.238213757 38.4004111,0.238213757 C38.4004111,0.238213757 7.94285556,-0.936562585 2.86707778,43.3244382 C2.86707778,43.3244382 -1.0387,85.6265139 38.4004111,85.6265139 C62.4374111,85.6265139 70.3731889,69.9102634 72.9053,57.6373228" id="Stroke-7" stroke="#11100D" stroke-width="2.63812635" stroke-linecap="round" stroke-linejoin="round"></path>
                        <polyline id="Stroke-9" stroke="#11100D" stroke-width="2.63812635" stroke-linecap="round" stroke-linejoin="round" points="25.8607556 83.9222201 26.7606444 113.907952 33.6232 115.615139"></polyline>
                        <polyline id="Stroke-11" stroke="#11100D" stroke-width="2.63812635" stroke-linecap="round" stroke-linejoin="round" points="51.4683 83.9222201 52.3667444 113.907952 59.2307444 115.615139"></polyline>
                        <g id="Group-15" transform="translate(0.000000, 115.485509)">
                            <mask id="mask-2" fill="white">
                                <use xlink:href="#path-1"></use>
                            </mask>
                            <g id="Clip-14"></g>
                            <path d="" id="Fill-13" fill="#11100D" mask="url(#mask-2)"></path>
                        </g>
                        <g id="Group-18" transform="translate(0.000000, 115.485509)">
                            <mask id="mask-4" fill="white">
                                <use xlink:href="#path-3"></use>
                            </mask>
                            <g id="Clip-17"></g>
                            <path d="" id="Fill-16" fill="#11100D" mask="url(#mask-4)"></path>
                        </g>
                        <g id="Group-21" transform="translate(0.000000, 115.485509)">
                            <mask id="mask-6" fill="white">
                                <use xlink:href="#path-5"></use>
                            </mask>
                            <g id="Clip-20"></g>
                            <path d="" id="Fill-19" fill="#11100D" mask="url(#mask-6)"></path>
                        </g>
                        <g id="Group-24" transform="translate(0.000000, 115.485509)">
                            <mask id="mask-8" fill="white">
                                <use xlink:href="#path-7"></use>
                            </mask>
                            <g id="Clip-23"></g>
                            <path d="" id="Fill-22" fill="#11100D" mask="url(#mask-8)"></path>
                        </g>
                        <g id="Group-27" transform="translate(0.000000, 115.485509)">
                            <mask id="mask-10" fill="white">
                                <use xlink:href="#path-9"></use>
                            </mask>
                            <g id="Clip-26"></g>
                            <path d="" id="Fill-25" fill="#11100D" mask="url(#mask-10)"></path>
                        </g>
                        <g id="Group-30" transform="translate(0.000000, 115.485509)">
                            <mask id="mask-12" fill="white">
                                <use xlink:href="#path-11"></use>
                            </mask>
                            <g id="Clip-29"></g>
                            <path d="" id="Fill-28" fill="#11100D" mask="url(#mask-12)"></path>
                        </g>
                        <g id="Group-33" transform="translate(0.000000, 115.485509)">
                            <mask id="mask-14" fill="white">
                                <use xlink:href="#path-13"></use>
                            </mask>
                            <g id="Clip-32"></g>
                            <path d="" id="Fill-31" fill="#11100D" mask="url(#mask-14)"></path>
                        </g>
                        <g id="Group-36" transform="translate(0.000000, 115.485509)">
                            <mask id="mask-16" fill="white">
                                <use xlink:href="#path-15"></use>
                            </mask>
                            <g id="Clip-35"></g>
                            <path d="" id="Fill-34" fill="#11100D" mask="url(#mask-16)"></path>
                        </g>
                        <path d="M57.8003111,30.6730229 C48.2713111,30.6730229 40.5464222,38.410343 40.5464222,47.9546773 L40.5464222,52.1835828 C40.5464222,58.3034152 45.4994222,63.2643858 51.6094222,63.2643858 C57.3684222,63.2643858 62.1639778,58.8401665 62.6363111,53.0936005 L63.9319778,37.3411807 C64.2266444,33.7503004 61.3969778,30.6730229 57.8003111,30.6730229" id="Fill-37" fill="#11100D"></path>
                        <path d="M55.0853333,60.0809155 C56.6482222,59.4284227 57.0382222,57.3841383 55.8104444,56.2165958 C54.7256667,55.1850496 53.2003333,54.4269427 50.9007778,54.3126479 C48.8381111,54.2113741 47.229,55.4150858 46.1586667,56.5927557 C45.1894444,57.6604712 45.5447778,59.3691052 46.8621111,59.9535998 C48.0393333,60.4744366 49.5617778,60.9663381 51.1217778,60.9663381 C52.5546667,60.9663381 53.9557778,60.5525622 55.0853333,60.0809155" id="Fill-39" fill="#FFFFFF"></path>
                        <polygon id="Fill-41" fill="#F7F7F7" points="68.7662444 52.8012085 70.1254667 57.6363101 101.722689 57.6363101 103.308689 52.8012085"></polygon>
                        <polygon id="Stroke-43" stroke="#11100D" stroke-width="2.33679176" stroke-linecap="round" stroke-linejoin="round" points="68.7662444 52.8012085 70.1254667 57.6363101 101.722689 57.6363101 103.308689 52.8012085"></polygon>
                        <path d="M70.4572556,48.7035316 L101.678922,48.7035316" id="Stroke-45" stroke="#11100D" stroke-width="2.33679176" stroke-linecap="round" stroke-linejoin="round"></path>
                        <path d="M67.9234111,44.5087565 L103.851078,44.5087565 L102.4673,41.6600686 C99.3834111,35.3073064 92.9498556,31.2751615 85.8966333,31.2751615 C78.8809667,31.2751615 72.4748556,35.2653501 69.3707444,41.5674754 L67.9234111,44.5087565 Z" id="Stroke-51" stroke="#11100D" stroke-width="2.33679176" stroke-linecap="round" stroke-linejoin="round"></path>
                        <polyline id="Stroke-53" stroke="#11100D" stroke-width="2.63812635" stroke-linecap="round" stroke-linejoin="round" points="13.3393 45.8075276 13.3393 98.497404 4.7593 98.497404"></polyline>
                        <path d="M6.83684444,93.9706088 L13.3397333,98.4975487" id="Stroke-55" stroke="#11100D" stroke-width="2.63812635" stroke-linecap="round" stroke-linejoin="round"></path>
                        <path d="M71.7454111,62.1606458 C75.6800778,63.7376239 80.8237444,63.9430651 87.0464111,58.0185465" id="Stroke-57" stroke="#11100D" stroke-width="2.63812635" stroke-linecap="round" stroke-linejoin="round"></path>
                        <path d="M57.1355778,79.2436589 C55.3589111,78.510147 54.1296889,76.6148798 54.1816889,74.6906772 C54.2336889,72.7664745 55.5640222,70.9406522 57.3768,70.3040739 C58.1206889,70.0422087 58.9266889,69.9669767 59.6445778,69.6429005 C60.8694667,69.0916815 61.6725778,67.9082246 62.3644667,66.7551498 C63.0549111,65.6035217 63.7424667,64.3781085 64.8633556,63.6388096 C65.9842444,62.8995107 67.6959111,62.8517673 68.5091333,63.9223763 C68.7778,64.2739411 68.9208,64.706525 69.0248,65.1376621 C69.2616889,66.1084441 69.3281333,67.1211823 69.2198,68.1151125 L59.8496889,80.6036216" id="Fill-59" fill="#11100D" opacity="0.100000001"></path>
                        <path d="M39.4151333,57.5406787 C37.5344667,57.9385401 35.4515778,57.069032 34.4115778,55.4515444 C33.3701333,53.83261 33.4394667,51.572757 34.5791333,50.0232675 C35.0456889,49.3866892 35.6682444,48.8701927 36.0784667,48.1959984 C36.7790222,47.0487107 36.7761333,45.6178562 36.6981333,44.2752547 C36.6201333,42.9326532 36.4959111,41.5336276 37.0058,40.2894064 C37.5156889,39.0451851 38.9009111,38.0396808 40.1749111,38.4621373 C40.5952444,38.6024739 40.9578,38.8788067 41.2871333,39.1753943 C42.0295778,39.8438016 42.6535778,40.642418 43.1244667,41.5235003 L42.4224667,57.1297963" id="Fill-61" fill="#11100D" opacity="0.100000001"></path>
                        <path d="M45.1170778,69.4729051 C42.7091889,68.6742887 39.8188556,69.7376638 38.4986333,71.9078172 C38.2357444,72.3389543 38.0263,72.8612379 38.1823,73.3430119 C38.2660778,73.6019836 38.4480778,73.8204457 38.6589667,73.9926112 C39.4996333,74.6812732 40.7100778,74.6740393 41.7731889,74.4526837 C42.8363,74.2327748 43.8806333,73.8334666 44.9654111,73.8566149 C45.1950778,73.8609552 45.4319667,73.8841035 45.6515222,73.8204457 C45.8811889,73.7524475 46.0747444,73.5961965 46.2307444,73.4167971 C46.7810778,72.7831124 46.9038556,71.8123304 46.5297444,71.0629042 C46.1556333,70.3120311 45.9519667,69.4121408 45.1170778,69.4729051" id="Fill-63" fill="#11100D" opacity="0.100000001"></path>
                    </g>
                </g>
            </g>
        </g>
    </g>
</svg>
